src/assets/logo-youtube.svg

<svg width="237" height="53" viewBox="0 0 237 53" fill="none" xmlns="http://www.w3.org/2000/svg">
<g clip-path="url(#clip0_351_14165)">
<path d="M73.9604 8.30209C73.1221 5.07313 70.538 2.55353 67.309 1.65072C61.4315 0.033933 37.9167 0.0339355 37.9167 0.0339355C37.9167 0.0339355 14.402 0.0339334 8.52447 1.58623C5.36 2.42456 2.77591 5.07314 1.8731 8.23761C0.320801 14.1151 0.320801 26.3262 0.320801 26.3262C0.320801 26.3262 0.320801 38.5972 1.8731 44.4148C2.71143 47.6438 5.29551 50.1634 8.52447 51.0662C14.4665 52.683 37.9167 52.683 37.9167 52.683C37.9167 52.683 61.4315 52.683 67.309 51.1307C70.538 50.2924 73.0576 47.7083 73.9604 44.4793C75.5127 38.6018 75.5127 26.3907 75.5127 26.3907C75.5127 26.3907 75.5726 14.1842 73.9604 8.30209Z" fill="#FF0000"/>
<path d="M30.4927 37.6286L50 26.3894L30.4927 15.1503V37.6286Z" fill="white"/>
<path d="M109.488 47.9688C108 47.0015 106.968 45.4492 106.323 43.2521C105.679 41.1194 105.421 38.2774 105.421 34.855V30.0737C105.421 26.5223 105.808 23.6803 106.452 21.5476C107.162 19.3504 108.327 17.8672 109.81 16.8308C111.363 15.8635 113.362 15.343 115.817 15.343C118.208 15.343 120.211 15.8589 121.694 16.8308C123.182 17.7981 124.214 19.4149 124.923 21.5476C125.633 23.6803 125.955 26.5223 125.955 30.0737V34.855C125.955 38.4064 125.633 41.1839 124.988 43.3166C124.279 45.4493 123.242 46.9969 121.759 48.0333C120.271 49.0006 118.208 49.5212 115.688 49.5212C113.104 49.4521 110.971 49.0006 109.488 47.9688ZM117.821 42.8007C118.272 41.7689 118.465 39.9586 118.465 37.568V27.2962C118.465 24.97 118.272 23.2289 117.821 22.128C117.369 21.0271 116.724 20.5112 115.623 20.5112C114.656 20.5112 113.878 21.0916 113.491 22.128C113.039 23.2243 112.846 24.97 112.846 27.2962V37.568C112.846 39.9586 113.039 41.7689 113.491 42.8007C113.878 43.8325 114.587 44.4175 115.688 44.4175C116.72 44.4175 117.434 43.897 117.821 42.8007Z" fill="#282828"/>
<path d="M223.695 34.9213V36.6026C223.695 38.7353 223.759 40.283 223.888 41.3838C224.017 42.4156 224.275 43.2586 224.662 43.6455C225.049 44.1614 225.63 44.3549 226.537 44.3549C227.633 44.3549 228.412 43.9034 228.799 43.0651C229.25 42.2268 229.444 40.8035 229.508 38.7353L235.901 39.1222C235.966 39.4446 235.966 39.8315 235.966 40.283C235.966 43.3185 235.192 45.5801 233.511 47.0633C231.83 48.5511 229.508 49.2605 226.468 49.2605C222.788 49.2605 220.268 48.0997 218.78 45.7736C217.292 43.5119 216.583 39.9605 216.583 35.1148V29.3662C216.583 24.3915 217.292 20.8401 218.845 18.514C220.397 16.2523 222.981 15.0916 226.661 15.0916C229.181 15.0916 231.185 15.6075 232.539 16.5149C233.893 17.4223 234.801 18.9055 235.381 20.8447C235.961 22.8484 236.155 25.5615 236.155 28.9839V34.6035H223.686L223.695 34.9213ZM224.667 21.0981C224.28 21.614 224.022 22.3233 223.958 23.3597C223.893 24.3915 223.764 26.0083 223.764 28.2055V30.5316H229.19V28.2055C229.19 26.0728 229.126 24.5251 228.997 23.3597C228.868 22.1989 228.545 21.485 228.223 21.0981C227.836 20.6467 227.256 20.3887 226.477 20.3887C225.57 20.3242 225.054 20.5822 224.667 21.0981Z" fill="#282828"/>
<path d="M91.3988 34.3392L83.0017 3.85071H90.3671L93.3381 17.674C94.0474 21.0964 94.6278 24.0029 95.0193 26.3935H95.2128C95.4707 24.6478 95.9866 21.8057 96.8941 17.7384L99.994 3.85071H107.295L98.7688 34.3392V48.9363H91.4679L91.3988 34.3392Z" fill="#282828"/>
<path d="M149.928 15.984V48.9922H144.115L143.47 44.9894H143.276C141.724 48.0249 139.338 49.5771 136.169 49.5771C133.972 49.5771 132.424 48.8678 131.323 47.38C130.227 45.8922 129.771 43.6996 129.771 40.6641V16.0531H137.201V40.2772C137.201 41.765 137.394 42.7968 137.717 43.4417C138.039 44.0865 138.555 44.3445 139.333 44.3445C139.978 44.3445 140.559 44.151 141.208 43.6996C141.853 43.3127 142.24 42.8613 142.498 42.2118V16.0485H149.928V15.984Z" fill="#282828"/>
<path d="M187.974 15.984V48.9922H182.161L181.516 44.9894H181.323C179.771 48.0249 177.384 49.5771 174.215 49.5771C172.018 49.5771 170.471 48.8678 169.37 47.38C168.338 45.9567 167.817 43.6996 167.817 40.6641V16.0531H175.247V40.2772C175.247 41.765 175.441 42.7968 175.763 43.4417C176.086 44.0865 176.601 44.3445 177.38 44.3445C178.025 44.3445 178.605 44.151 179.255 43.6996C179.899 43.3127 180.286 42.8613 180.544 42.2118V16.0485H187.974V15.984Z" fill="#282828"/>
<path d="M170.08 9.78604H162.715V48.9297H155.483V9.78604H148.118V3.77954H170.08V9.78604Z" fill="#282828"/>
<path d="M212.507 21.2245C212.056 19.0918 211.347 17.6086 210.31 16.7012C209.343 15.7984 207.92 15.2779 206.174 15.2779C204.82 15.2779 203.525 15.6648 202.364 16.4386C201.204 17.148 200.232 18.2489 199.651 19.4741H199.587V2.09949H192.415V48.8664H198.551L199.26 45.7664H199.453C200.034 46.8627 200.877 47.7701 202.037 48.415C203.198 49.0599 204.428 49.3823 205.847 49.3823C208.366 49.3823 210.177 48.2215 211.337 45.8954C212.498 43.6337 213.148 39.9534 213.148 35.0431V29.875C213.157 26.1992 212.963 23.2927 212.507 21.2245ZM205.727 34.6608C205.727 37.0515 205.598 38.9262 205.405 40.2804C205.211 41.6347 204.824 42.6066 204.437 43.1869C203.921 43.7673 203.341 44.0253 202.563 44.0253C201.918 44.0253 201.402 43.8963 200.881 43.5739C200.365 43.2514 199.978 42.8645 199.656 42.2841V23.6151C199.914 22.7768 200.365 21.9983 200.946 21.418C201.591 20.8376 202.235 20.5796 202.949 20.5796C203.663 20.5796 204.304 20.9021 204.695 21.418C205.147 22.0628 205.405 23.0347 205.534 24.389C205.727 25.8123 205.791 27.8114 205.791 30.331L205.727 34.6608Z" fill="#282828"/>
</g>
<defs>
<clipPath id="clip0_351_14165">
<rect width="237" height="53" fill="white"/>
</clipPath>
</defs>
</svg>

<svg width="237" height="53" fill="none" xmlns="http://www.w3.org/2000/svg"><g clip-path="url(#a)"><path d="M73.96 8.302c-.838-3.229-3.422-5.748-6.651-6.651C61.432.034 37.917.034 37.917.034s-23.515 0-29.393 1.552c-3.164.839-5.748 3.487-6.65 6.652C.32 14.115.32 26.326.32 26.326s0 12.271 1.552 18.089c.838 3.229 3.423 5.748 6.651 6.651 5.943 1.617 29.393 1.617 29.393 1.617s23.514 0 29.392-1.552c3.229-.839 5.749-3.423 6.651-6.652 1.553-5.877 1.553-18.088 1.553-18.088s.06-12.207-1.553-18.089Z" fill="red"/><path d="M30.493 37.629 50 26.389 30.493 15.15V37.63Z" fill="#fff"/><path d="M109.488 47.969c-1.488-.968-2.52-2.52-3.165-4.717-.644-2.133-.902-4.975-.902-8.397v-4.781c0-3.552.387-6.394 1.031-8.526.71-2.198 1.875-3.68 3.358-4.717 1.553-.967 3.552-1.488 6.007-1.488 2.391 0 4.394.516 5.877 1.488 1.488.967 2.52 2.584 3.229 4.717.71 2.132 1.032 4.974 1.032 8.526v4.781c0 3.551-.322 6.329-.967 8.462-.709 2.132-1.746 3.68-3.229 4.716-1.488.968-3.551 1.488-6.071 1.488-2.584-.069-4.717-.52-6.2-1.552Zm8.333-5.168c.451-1.032.644-2.842.644-5.233V27.296c0-2.326-.193-4.067-.644-5.168-.452-1.1-1.097-1.617-2.198-1.617-.967 0-1.745.58-2.132 1.617-.452 1.096-.645 2.842-.645 5.168v10.272c0 2.39.193 4.2.645 5.233.387 1.032 1.096 1.616 2.197 1.616 1.032 0 1.746-.52 2.133-1.616ZM223.695 34.921v1.682c0 2.132.064 3.68.193 4.78.129 1.033.387 1.876.774 2.262.387.516.968.71 1.875.71 1.096 0 1.875-.452 2.262-1.29.451-.838.645-2.261.709-4.33l6.393.387c.065.323.065.71.065 1.161 0 3.035-.774 5.297-2.455 6.78-1.681 1.488-4.003 2.197-7.043 2.197-3.68 0-6.2-1.16-7.688-3.486-1.488-2.262-2.197-5.813-2.197-10.66v-5.748c0-4.974.709-8.526 2.262-10.852 1.552-2.262 4.136-3.422 7.816-3.422 2.52 0 4.524.515 5.878 1.423 1.354.907 2.262 2.39 2.842 4.33.58 2.003.774 4.716.774 8.139v5.62h-12.469l.009.317Zm.972-13.823c-.387.516-.645 1.225-.709 2.262-.065 1.032-.194 2.648-.194 4.846v2.326h5.426v-2.326c0-2.133-.064-3.68-.193-4.846-.129-1.161-.452-1.875-.774-2.262-.387-.451-.967-.71-1.746-.71-.907-.064-1.423.194-1.81.71ZM91.399 34.34 83.002 3.85h7.365l2.971 13.824c.71 3.422 1.29 6.329 1.681 8.72h.194c.258-1.746.774-4.588 1.681-8.656l3.1-13.887h7.301l-8.526 30.488v14.597h-7.301l-.07-14.597ZM149.928 15.984v33.008h-5.813l-.645-4.003h-.194c-1.552 3.036-3.938 4.588-7.107 4.588-2.197 0-3.745-.71-4.846-2.197-1.096-1.488-1.552-3.68-1.552-6.716v-24.61h7.43v24.223c0 1.488.193 2.52.516 3.165.322.645.838.902 1.616.902.645 0 1.226-.193 1.875-.644.645-.387 1.032-.839 1.29-1.488V16.048h7.43v-.064ZM187.974 15.984v33.008h-5.813l-.645-4.003h-.193c-1.552 3.036-3.939 4.588-7.108 4.588-2.197 0-3.744-.71-4.845-2.197-1.032-1.423-1.553-3.68-1.553-6.716v-24.61h7.43v24.223c0 1.488.194 2.52.516 3.165.323.645.838.902 1.617.902.645 0 1.225-.193 1.875-.644.644-.387 1.031-.839 1.289-1.488V16.048h7.43v-.064Z" fill="#282828"/><path d="M170.08 9.786h-7.365V48.93h-7.232V9.786h-7.365V3.78h21.962v6.006ZM212.507 21.224c-.451-2.132-1.16-3.615-2.197-4.523-.967-.903-2.39-1.423-4.136-1.423a6.788 6.788 0 0 0-3.81 1.16 7.27 7.27 0 0 0-2.713 3.036h-.064V2.1h-7.172v46.767h6.136l.709-3.1h.193a6.39 6.39 0 0 0 2.584 2.649c1.161.645 2.391.967 3.81.967 2.519 0 4.33-1.16 5.49-3.487 1.161-2.261 1.811-5.942 1.811-10.852v-5.168c.009-3.676-.185-6.582-.641-8.65Zm-6.78 13.437c0 2.39-.129 4.265-.322 5.62-.194 1.354-.581 2.326-.968 2.906-.516.58-1.096.838-1.874.838-.645 0-1.161-.129-1.682-.451a3.372 3.372 0 0 1-1.225-1.29V23.615c.258-.838.709-1.617 1.29-2.197.645-.58 1.289-.838 2.003-.838.714 0 1.355.322 1.746.838.452.645.71 1.617.839 2.971.193 1.423.257 3.422.257 5.942l-.064 4.33Z" fill="#282828"/></g><defs><clipPath id="a"><path fill="#fff" d="M0 0h237v53H0z"/></clipPath></defs></svg>
